X:1
T:Maui, CMD
T:William James Kirkpatrick, 1902
T:Maui, CMD
T:Public Domain
C:William James Kirkpatrick, 1902
Z:Public Domain
%%score 1 2
L:1/8
M:3/4
K:Ab
V:1 treble 
V:2 bass 
V:1
 [CE][Ec] [=D=B] | [Ec]3 [_Ge] [F=d][_F_d] | [Ec]3 [CA] [B,G][CA] | [DB]2 [Fd]2 [_FB]2 | %4
 [Ec]3 [CE] [Ec][=D=B] | [Ec]3 [_Ge] [F=d][_F_d] | [Ec]3 [CA] [B,G][CA] | [DB]2 [Fd]2 [Ec]2 | %8
 [CA]3 [CA] [B,G][CA] | [DB]3 [DB] [C=A][DB] | [Ec]3 [Ac] [GB][_Gc] | [Fd]2 [_Ge]2 [Af]2 | %12
 [GB]3 [GB] [Ac][Bd] | [ce]3 [Ac] [Bd][ce] | [df]3 [FA] [EG][DF] | [CE]2 [Ec]2 [DB]2 | [CA]3 |] %17
V:2
 z [A,,A,] z | ([A,,A,]E, [A,C])E, [A,_C] z | ([A,,A,]E, [A,C]) z3 | %3
 ([E,,E,]E,) ([G,D]E,) [G,D] z | ([A,,A,]E, [A,C])E, [A,C] z | ([A,,A,]E, [A,C])E, [A,_C] z | %6
 ([A,,A,]E, [A,C]) z3 | ([E,,E,]E,) ([G,D]E,) [G,D] z | (A,,E, [A,,A,]) z3 | %9
 ([E,,E,][E,G,B,] [E,G,B,]) z [E,G,B,] z | ([A,,A,][E,A,C] [E,A,C]) z [E,A,C] z | %11
 ([D,,D,][D,F,A,]) ([D,F,A,][D,F,A,]) ([D,F,A,][D,F,A,]) | ([E,,E,][B,,B,] [G,,G,])[E,,E,] z2 | %13
 ([A,,A,][E,A,C] [E,A,C]) z [E,A,C] z | ([D,,D,][D,F,A,] [D,F,A,]) z [D,F,A,] z | %15
 [E,A,]2 [E,A,]2 [E,G,]2 | [A,,E,A,]3 |] %17

